symbols/web/filter_center_focus/materialsymbolssharp/filter_center_focus_wght700gradN25_20px.svg

<svg xmlns="http://www.w3.org/2000/svg" height="20" width="20"><path d="M9.979 13.167q-1.291 0-2.219-.927-.927-.928-.927-2.219 0-1.313.927-2.25.928-.938 2.219-.938 1.313 0 2.25.938.938.937.938 2.25 0 1.291-.938 2.219-.937.927-2.25.927Zm-8-5.584V1.979h5.604v2.604h-3v3Zm5.604 10.438H1.979v-5.604h2.604v3h3Zm4.834 0v-2.604h3v-3h2.604v5.604Zm3-10.438v-3h-3V1.979h5.604v5.604ZM10 10.812q.354 0 .583-.229.229-.229.229-.583t-.229-.583q-.229-.229-.583-.229-.333 0-.573.229-.239.229-.239.583 0 .333.229.573.229.239.583.239Z"/></svg>

<svg xmlns="http://www.w3.org/2000/svg" height="20" width="20"><path d="M9.979 13.167Q8.688 13.167 7.76 12.24Q6.833 11.312 6.833 10.021Q6.833 8.708 7.76 7.771Q8.688 6.833 9.979 6.833Q11.292 6.833 12.229 7.771Q13.167 8.708 13.167 10.021Q13.167 11.312 12.229 12.24Q11.292 13.167 9.979 13.167ZM1.979 7.583V1.979H7.583V4.583H4.583V7.583ZM7.583 18.021H1.979V12.417H4.583V15.417H7.583ZM12.417 18.021V15.417H15.417V12.417H18.021V18.021ZM15.417 7.583V4.583H12.417V1.979H18.021V7.583Z"/></svg>
